images/50571433.svg

<?xml version="1.0" encoding="UTF-8"?>
<svg xmlns="http://www.w3.org/2000/svg" xmlns:xlink="http://www.w3.org/1999/xlink" width="300pt" height="300pt" viewBox="0 0 300 300" version="1.1">
<defs>
<g>
<symbol overflow="visible" id="glyph0-0">
<path style="stroke:none;" d="M 0.59375 2.125 L 0.59375 -8.46875 L 6.59375 -8.46875 L 6.59375 2.125 Z M 1.265625 1.453125 L 5.9375 1.453125 L 5.9375 -7.78125 L 1.265625 -7.78125 Z M 1.265625 1.453125 "/>
</symbol>
<symbol overflow="visible" id="glyph0-1">
<path style="stroke:none;" d="M 4.734375 -7.953125 C 3.867188 -7.953125 3.179688 -7.628906 2.671875 -6.984375 C 2.171875 -6.347656 1.921875 -5.472656 1.921875 -4.359375 C 1.921875 -3.265625 2.171875 -2.394531 2.671875 -1.75 C 3.179688 -1.113281 3.867188 -0.796875 4.734375 -0.796875 C 5.585938 -0.796875 6.265625 -1.113281 6.765625 -1.75 C 7.273438 -2.394531 7.53125 -3.265625 7.53125 -4.359375 C 7.53125 -5.472656 7.273438 -6.347656 6.765625 -6.984375 C 6.265625 -7.628906 5.585938 -7.953125 4.734375 -7.953125 Z M 4.734375 -8.90625 C 5.953125 -8.90625 6.925781 -8.492188 7.65625 -7.671875 C 8.394531 -6.847656 8.765625 -5.742188 8.765625 -4.359375 C 8.765625 -2.984375 8.394531 -1.882812 7.65625 -1.0625 C 6.925781 -0.238281 5.953125 0.171875 4.734375 0.171875 C 3.503906 0.171875 2.519531 -0.238281 1.78125 -1.0625 C 1.039062 -1.882812 0.671875 -2.984375 0.671875 -4.359375 C 0.671875 -5.742188 1.039062 -6.847656 1.78125 -7.671875 C 2.519531 -8.492188 3.503906 -8.90625 4.734375 -8.90625 Z M 4.734375 -8.90625 "/>
</symbol>
<symbol overflow="visible" id="glyph0-2">
<path style="stroke:none;" d="M 1.171875 -8.75 L 2.765625 -8.75 L 6.65625 -1.4375 L 6.65625 -8.75 L 7.796875 -8.75 L 7.796875 0 L 6.203125 0 L 2.328125 -7.3125 L 2.328125 0 L 1.171875 0 Z M 1.171875 -8.75 "/>
</symbol>
<symbol overflow="visible" id="glyph0-3">
<path style="stroke:none;" d="M 1.171875 -8.75 L 2.359375 -8.75 L 2.359375 -5.15625 L 6.65625 -5.15625 L 6.65625 -8.75 L 7.84375 -8.75 L 7.84375 0 L 6.65625 0 L 6.65625 -4.171875 L 2.359375 -4.171875 L 2.359375 0 L 1.171875 0 Z M 1.171875 -8.75 "/>
</symbol>
<symbol overflow="visible" id="glyph1-0">
<path style="stroke:none;" d="M 0.5 1.765625 L 0.5 -7.046875 L 5.5 -7.046875 L 5.5 1.765625 Z M 1.0625 1.21875 L 4.9375 1.21875 L 4.9375 -6.484375 L 1.0625 -6.484375 Z M 1.0625 1.21875 "/>
</symbol>
<symbol overflow="visible" id="glyph1-1">
<path style="stroke:none;" d="M 1.921875 -0.828125 L 5.359375 -0.828125 L 5.359375 0 L 0.734375 0 L 0.734375 -0.828125 C 1.109375 -1.210938 1.617188 -1.734375 2.265625 -2.390625 C 2.910156 -3.046875 3.316406 -3.46875 3.484375 -3.65625 C 3.796875 -4.007812 4.015625 -4.304688 4.140625 -4.546875 C 4.265625 -4.796875 4.328125 -5.039062 4.328125 -5.28125 C 4.328125 -5.664062 4.191406 -5.976562 3.921875 -6.21875 C 3.648438 -6.46875 3.296875 -6.59375 2.859375 -6.59375 C 2.546875 -6.59375 2.21875 -6.535156 1.875 -6.421875 C 1.539062 -6.316406 1.175781 -6.15625 0.78125 -5.9375 L 0.78125 -6.9375 C 1.175781 -7.09375 1.546875 -7.210938 1.890625 -7.296875 C 2.234375 -7.378906 2.550781 -7.421875 2.84375 -7.421875 C 3.59375 -7.421875 4.191406 -7.234375 4.640625 -6.859375 C 5.097656 -6.484375 5.328125 -5.976562 5.328125 -5.34375 C 5.328125 -5.039062 5.269531 -4.753906 5.15625 -4.484375 C 5.039062 -4.222656 4.835938 -3.910156 4.546875 -3.546875 C 4.460938 -3.453125 4.203125 -3.175781 3.765625 -2.71875 C 3.328125 -2.269531 2.710938 -1.640625 1.921875 -0.828125 Z M 1.921875 -0.828125 "/>
</symbol>
<symbol overflow="visible" id="glyph1-2">
<path style="stroke:none;" d="M 4.59375 -6.265625 L 4.59375 -3.546875 L 7.3125 -3.546875 L 7.3125 -2.71875 L 4.59375 -2.71875 L 4.59375 0 L 3.78125 0 L 3.78125 -2.71875 L 1.0625 -2.71875 L 1.0625 -3.546875 L 3.78125 -3.546875 L 3.78125 -6.265625 Z M 4.59375 -6.265625 "/>
</symbol>
</g>
</defs>
<g id="surface19205">
<rect x="0" y="0" width="300" height="300" style="fill:rgb(100%,100%,100%);fill-opacity:1;stroke:none;"/>
<path style="fill:none;stroke-width:1.2;stroke-linecap:butt;stroke-linejoin:miter;stroke:rgb(100%,0%,0%);stroke-opacity:1;stroke-miterlimit:10;" d="M 264.75 183.984375 L 263.996094 169.214844 "/>
<path style="fill:none;stroke-width:1.2;stroke-linecap:butt;stroke-linejoin:miter;stroke:rgb(0%,0%,0%);stroke-opacity:1;stroke-miterlimit:10;" d="M 263.996094 169.214844 L 263.242188 154.441406 "/>
<path style="fill:none;stroke-width:1.2;stroke-linecap:butt;stroke-linejoin:miter;stroke:rgb(0%,0%,0%);stroke-opacity:1;stroke-miterlimit:10;" d="M 237.117188 194.546875 L 250.933594 189.265625 "/>
<path style="fill:none;stroke-width:1.2;stroke-linecap:butt;stroke-linejoin:miter;stroke:rgb(100%,0%,0%);stroke-opacity:1;stroke-miterlimit:10;" d="M 250.933594 189.265625 L 264.75 183.984375 "/>
<path style=" stroke:none;fill-rule:nonzero;fill:rgb(100%,100%,100%);fill-opacity:1;" d="M 259.75 176.984375 L 269.75 176.984375 L 269.75 190.984375 L 259.75 190.984375 Z M 259.75 176.984375 "/>
<g style="fill:rgb(100%,0%,0%);fill-opacity:1;">
  <use xlink:href="#glyph0-1" x="259.75" y="188.123047"/>
</g>
<path style="fill:none;stroke-width:1.2;stroke-linecap:butt;stroke-linejoin:miter;stroke:rgb(0%,0%,0%);stroke-opacity:1;stroke-miterlimit:10;" d="M 263.242188 154.441406 L 234.679688 146.746094 "/>
<path style="fill:none;stroke-width:1.2;stroke-linecap:butt;stroke-linejoin:miter;stroke:rgb(0%,0%,0%);stroke-opacity:1;stroke-miterlimit:10;" d="M 234.679688 146.746094 L 218.535156 171.53125 "/>
<path style="fill:none;stroke-width:1.2;stroke-linecap:butt;stroke-linejoin:miter;stroke:rgb(0%,0%,0%);stroke-opacity:1;stroke-miterlimit:10;" d="M 218.535156 171.53125 L 189.3125 176.121094 "/>
<path style="fill:none;stroke-width:1.2;stroke-linecap:butt;stroke-linejoin:miter;stroke:rgb(0%,0%,0%);stroke-opacity:1;stroke-miterlimit:10;" d="M 216.691406 178.867188 L 193.3125 182.535156 "/>
<path style="fill:none;stroke-width:1.2;stroke-linecap:butt;stroke-linejoin:miter;stroke:rgb(0%,0%,0%);stroke-opacity:1;stroke-miterlimit:10;" d="M 237.117188 194.546875 L 218.535156 171.53125 "/>
<path style="fill:none;stroke-width:1.2;stroke-linecap:butt;stroke-linejoin:miter;stroke:rgb(0%,0%,0%);stroke-opacity:1;stroke-miterlimit:10;" d="M 189.3125 176.121094 L 178.671875 203.722656 "/>
<path style="fill:none;stroke-width:1.2;stroke-linecap:butt;stroke-linejoin:miter;stroke:rgb(0%,0%,0%);stroke-opacity:1;stroke-miterlimit:10;" d="M 178.671875 203.722656 L 197.253906 226.734375 "/>
<path style="fill:none;stroke-width:1.2;stroke-linecap:butt;stroke-linejoin:miter;stroke:rgb(0%,0%,0%);stroke-opacity:1;stroke-miterlimit:10;" d="M 185.945312 201.648438 L 200.8125 220.0625 "/>
<path style="fill:none;stroke-width:1.2;stroke-linecap:butt;stroke-linejoin:miter;stroke:rgb(0%,0%,0%);stroke-opacity:1;stroke-miterlimit:10;" d="M 178.671875 203.722656 L 149.449219 208.308594 "/>
<path style="fill:none;stroke-width:1.2;stroke-linecap:butt;stroke-linejoin:miter;stroke:rgb(0%,0%,0%);stroke-opacity:1;stroke-miterlimit:10;" d="M 197.253906 226.734375 L 226.480469 222.148438 "/>
<path style="fill:none;stroke-width:1.2;stroke-linecap:butt;stroke-linejoin:miter;stroke:rgb(0%,0%,0%);stroke-opacity:1;stroke-miterlimit:10;" d="M 226.480469 222.148438 L 237.117188 194.546875 "/>
<path style="fill:none;stroke-width:1.2;stroke-linecap:butt;stroke-linejoin:miter;stroke:rgb(0%,0%,0%);stroke-opacity:1;stroke-miterlimit:10;" d="M 221.046875 216.886719 L 229.558594 194.804688 "/>
<path style="fill:none;stroke-width:1.2;stroke-linecap:butt;stroke-linejoin:miter;stroke:rgb(0%,0%,0%);stroke-opacity:1;stroke-miterlimit:10;" d="M 146.199219 207.054688 L 140.882812 220.855469 "/>
<path style="fill:none;stroke-width:1.2;stroke-linecap:butt;stroke-linejoin:miter;stroke:rgb(100%,0%,0%);stroke-opacity:1;stroke-miterlimit:10;" d="M 140.882812 220.855469 L 135.5625 234.65625 "/>
<path style="fill:none;stroke-width:1.2;stroke-linecap:butt;stroke-linejoin:miter;stroke:rgb(0%,0%,0%);stroke-opacity:1;stroke-miterlimit:10;" d="M 152.695312 209.558594 L 147.375 223.359375 "/>
<path style="fill:none;stroke-width:1.2;stroke-linecap:butt;stroke-linejoin:miter;stroke:rgb(100%,0%,0%);stroke-opacity:1;stroke-miterlimit:10;" d="M 147.375 223.359375 L 142.054688 237.160156 "/>
<path style="fill:none;stroke-width:1.2;stroke-linecap:butt;stroke-linejoin:miter;stroke:rgb(0%,0%,0%);stroke-opacity:1;stroke-miterlimit:10;" d="M 149.449219 208.308594 L 140.15625 196.800781 "/>
<path style="fill:none;stroke-width:1.2;stroke-linecap:butt;stroke-linejoin:miter;stroke:rgb(0%,0%,100%);stroke-opacity:1;stroke-miterlimit:10;" d="M 140.15625 196.800781 L 130.863281 185.292969 "/>
<path style=" stroke:none;fill-rule:nonzero;fill:rgb(100%,100%,100%);fill-opacity:1;" d="M 128.808594 228.910156 L 138.808594 228.910156 L 138.808594 242.910156 L 128.808594 242.910156 Z M 128.808594 228.910156 "/>
<g style="fill:rgb(100%,0%,0%);fill-opacity:1;">
  <use xlink:href="#glyph0-1" x="128.808594" y="240.048828"/>
</g>
<path style="fill:none;stroke-width:1.2;stroke-linecap:butt;stroke-linejoin:miter;stroke:rgb(0%,0%,100%);stroke-opacity:1;stroke-miterlimit:10;" d="M 130.863281 185.292969 L 116.253906 187.585938 "/>
<path style="fill:none;stroke-width:1.2;stroke-linecap:butt;stroke-linejoin:miter;stroke:rgb(0%,0%,0%);stroke-opacity:1;stroke-miterlimit:10;" d="M 116.253906 187.585938 L 101.640625 189.878906 "/>
<path style="fill:none;stroke-width:1.2;stroke-linecap:butt;stroke-linejoin:miter;stroke:rgb(0%,0%,100%);stroke-opacity:1;stroke-miterlimit:10;" d="M 130.863281 185.292969 L 136.183594 171.492188 "/>
<path style="fill:none;stroke-width:1.2;stroke-linecap:butt;stroke-linejoin:miter;stroke:rgb(0%,0%,0%);stroke-opacity:1;stroke-miterlimit:10;" d="M 136.183594 171.492188 L 141.503906 157.691406 "/>
<path style=" stroke:none;fill-rule:nonzero;fill:rgb(100%,100%,100%);fill-opacity:1;" d="M 126.863281 178.292969 L 135.863281 178.292969 L 135.863281 192.292969 L 126.863281 192.292969 Z M 126.863281 178.292969 "/>
<g style="fill:rgb(0%,0%,100%);fill-opacity:1;">
  <use xlink:href="#glyph0-2" x="126.863281" y="189.431641"/>
</g>
<path style="fill:none;stroke-width:1.2;stroke-linecap:butt;stroke-linejoin:miter;stroke:rgb(0%,0%,0%);stroke-opacity:1;stroke-miterlimit:10;" d="M 101.640625 189.878906 L 83.058594 166.863281 "/>
<path style="fill:none;stroke-width:1.2;stroke-linecap:butt;stroke-linejoin:miter;stroke:rgb(0%,0%,0%);stroke-opacity:1;stroke-miterlimit:10;" d="M 83.058594 166.863281 L 93.695312 139.261719 "/>
<path style="fill:none;stroke-width:1.2;stroke-linecap:butt;stroke-linejoin:miter;stroke:rgb(0%,0%,0%);stroke-opacity:1;stroke-miterlimit:10;" d="M 53.832031 171.449219 L 83.058594 166.863281 "/>
<path style="fill:none;stroke-width:1.2;stroke-linecap:butt;stroke-linejoin:miter;stroke:rgb(0%,0%,0%);stroke-opacity:1;stroke-miterlimit:10;" d="M 93.695312 139.261719 L 75.113281 116.246094 "/>
<path style="fill:none;stroke-width:1.2;stroke-linecap:butt;stroke-linejoin:miter;stroke:rgb(0%,0%,0%);stroke-opacity:1;stroke-miterlimit:10;" d="M 75.113281 116.246094 L 60.5 118.539062 "/>
<path style="fill:none;stroke-width:1.2;stroke-linecap:butt;stroke-linejoin:miter;stroke:rgb(0%,0%,100%);stroke-opacity:1;stroke-miterlimit:10;" d="M 60.5 118.539062 L 45.890625 120.832031 "/>
<path style="fill:none;stroke-width:1.2;stroke-linecap:butt;stroke-linejoin:miter;stroke:rgb(0%,0%,100%);stroke-opacity:1;stroke-miterlimit:10;" d="M 45.890625 120.832031 L 40.570312 134.632812 "/>
<path style="fill:none;stroke-width:1.2;stroke-linecap:butt;stroke-linejoin:miter;stroke:rgb(0%,0%,0%);stroke-opacity:1;stroke-miterlimit:10;" d="M 40.570312 134.632812 L 35.25 148.433594 "/>
<path style=" stroke:none;fill-rule:nonzero;fill:rgb(100%,100%,100%);fill-opacity:1;" d="M 29.890625 109.832031 L 62.890625 109.832031 L 62.890625 131.832031 L 29.890625 131.832031 Z M 29.890625 109.832031 "/>
<g style="fill:rgb(0%,0%,100%);fill-opacity:1;">
  <use xlink:href="#glyph0-2" x="29.890625" y="123.99707"/>
  <use xlink:href="#glyph0-3" x="38.867188" y="123.99707"/>
</g>
<g style="fill:rgb(0%,0%,100%);fill-opacity:1;">
  <use xlink:href="#glyph1-1" x="47.890625" y="128.879883"/>
</g>
<g style="fill:rgb(0%,0%,100%);fill-opacity:1;">
  <use xlink:href="#glyph1-2" x="54.25293" y="119.114258"/>
</g>
<path style="fill:none;stroke-width:1.2;stroke-linecap:butt;stroke-linejoin:miter;stroke:rgb(0%,0%,0%);stroke-opacity:1;stroke-miterlimit:10;" d="M 35.25 148.433594 L 53.832031 171.449219 "/>
<path style="fill:none;stroke-width:1.2;stroke-linecap:butt;stroke-linejoin:miter;stroke:rgb(0%,0%,0%);stroke-opacity:1;stroke-miterlimit:10;" d="M 141.503906 157.691406 L 156.117188 155.398438 "/>
<path style="fill:none;stroke-width:1.2;stroke-linecap:butt;stroke-linejoin:miter;stroke:rgb(0%,0%,100%);stroke-opacity:1;stroke-miterlimit:10;" d="M 156.117188 155.398438 L 170.726562 153.105469 "/>
<path style="fill:none;stroke-width:1.2;stroke-linecap:butt;stroke-linejoin:miter;stroke:rgb(0%,0%,0%);stroke-opacity:1;stroke-miterlimit:10;" d="M 143.347656 150.355469 L 155.035156 148.519531 "/>
<path style="fill:none;stroke-width:1.2;stroke-linecap:butt;stroke-linejoin:miter;stroke:rgb(0%,0%,100%);stroke-opacity:1;stroke-miterlimit:10;" d="M 155.035156 148.519531 L 166.726562 146.6875 "/>
<path style="fill:none;stroke-width:1.2;stroke-linecap:butt;stroke-linejoin:miter;stroke:rgb(0%,0%,0%);stroke-opacity:1;stroke-miterlimit:10;" d="M 122.921875 134.675781 L 141.503906 157.691406 "/>
<path style="fill:none;stroke-width:1.2;stroke-linecap:butt;stroke-linejoin:miter;stroke:rgb(0%,0%,100%);stroke-opacity:1;stroke-miterlimit:10;" d="M 170.726562 153.105469 L 176.046875 139.304688 "/>
<path style="fill:none;stroke-width:1.2;stroke-linecap:butt;stroke-linejoin:miter;stroke:rgb(0%,0%,0%);stroke-opacity:1;stroke-miterlimit:10;" d="M 176.046875 139.304688 L 181.367188 125.503906 "/>
<path style=" stroke:none;fill-rule:nonzero;fill:rgb(100%,100%,100%);fill-opacity:1;" d="M 166.726562 146.105469 L 175.726562 146.105469 L 175.726562 160.105469 L 166.726562 160.105469 Z M 166.726562 146.105469 "/>
<g style="fill:rgb(0%,0%,100%);fill-opacity:1;">
  <use xlink:href="#glyph0-2" x="166.726562" y="157.244141"/>
</g>
<path style="fill:none;stroke-width:1.2;stroke-linecap:butt;stroke-linejoin:miter;stroke:rgb(0%,0%,0%);stroke-opacity:1;stroke-miterlimit:10;" d="M 181.367188 125.503906 L 172.074219 113.996094 "/>
<path style="fill:none;stroke-width:1.2;stroke-linecap:butt;stroke-linejoin:miter;stroke:rgb(0%,0%,100%);stroke-opacity:1;stroke-miterlimit:10;" d="M 172.074219 113.996094 L 162.785156 102.488281 "/>
<path style="fill:none;stroke-width:1.2;stroke-linecap:butt;stroke-linejoin:miter;stroke:rgb(0%,0%,0%);stroke-opacity:1;stroke-miterlimit:10;" d="M 174.09375 127.574219 L 166.660156 118.367188 "/>
<path style="fill:none;stroke-width:1.2;stroke-linecap:butt;stroke-linejoin:miter;stroke:rgb(0%,0%,100%);stroke-opacity:1;stroke-miterlimit:10;" d="M 166.660156 118.367188 L 159.226562 109.160156 "/>
<path style="fill:none;stroke-width:1.2;stroke-linecap:butt;stroke-linejoin:miter;stroke:rgb(0%,0%,0%);stroke-opacity:1;stroke-miterlimit:10;" d="M 181.367188 125.503906 L 195.980469 123.210938 "/>
<path style="fill:none;stroke-width:1.2;stroke-linecap:butt;stroke-linejoin:miter;stroke:rgb(0%,0%,100%);stroke-opacity:1;stroke-miterlimit:10;" d="M 195.980469 123.210938 L 210.589844 120.917969 "/>
<path style="fill:none;stroke-width:1.2;stroke-linecap:butt;stroke-linejoin:miter;stroke:rgb(0%,0%,100%);stroke-opacity:1;stroke-miterlimit:10;" d="M 162.785156 102.488281 L 148.171875 104.78125 "/>
<path style="fill:none;stroke-width:1.2;stroke-linecap:butt;stroke-linejoin:miter;stroke:rgb(0%,0%,0%);stroke-opacity:1;stroke-miterlimit:10;" d="M 148.171875 104.78125 L 133.558594 107.074219 "/>
<path style=" stroke:none;fill-rule:nonzero;fill:rgb(100%,100%,100%);fill-opacity:1;" d="M 158.785156 95.488281 L 167.785156 95.488281 L 167.785156 109.488281 L 158.785156 109.488281 Z M 158.785156 95.488281 "/>
<g style="fill:rgb(0%,0%,100%);fill-opacity:1;">
  <use xlink:href="#glyph0-2" x="158.785156" y="106.626953"/>
</g>
<path style="fill:none;stroke-width:1.2;stroke-linecap:butt;stroke-linejoin:miter;stroke:rgb(0%,0%,0%);stroke-opacity:1;stroke-miterlimit:10;" d="M 133.558594 107.074219 L 122.921875 134.675781 "/>
<path style="fill:none;stroke-width:1.2;stroke-linecap:butt;stroke-linejoin:miter;stroke:rgb(0%,0%,0%);stroke-opacity:1;stroke-miterlimit:10;" d="M 138.992188 112.335938 L 130.480469 134.417969 "/>
<path style="fill:none;stroke-width:1.2;stroke-linecap:butt;stroke-linejoin:miter;stroke:rgb(0%,0%,100%);stroke-opacity:1;stroke-miterlimit:10;" d="M 210.589844 120.917969 L 215.910156 107.117188 "/>
<path style="fill:none;stroke-width:1.2;stroke-linecap:butt;stroke-linejoin:miter;stroke:rgb(0%,0%,0%);stroke-opacity:1;stroke-miterlimit:10;" d="M 215.910156 107.117188 L 221.230469 93.316406 "/>
<path style=" stroke:none;fill-rule:nonzero;fill:rgb(100%,100%,100%);fill-opacity:1;" d="M 201.589844 113.917969 L 219.589844 113.917969 L 219.589844 127.917969 L 201.589844 127.917969 Z M 201.589844 113.917969 "/>
<g style="fill:rgb(0%,0%,100%);fill-opacity:1;">
  <use xlink:href="#glyph0-2" x="201.589844" y="125.056641"/>
  <use xlink:href="#glyph0-3" x="210.566406" y="125.056641"/>
</g>
<path style="fill:none;stroke-width:1.2;stroke-linecap:butt;stroke-linejoin:miter;stroke:rgb(0%,0%,0%);stroke-opacity:1;stroke-miterlimit:10;" d="M 221.230469 93.316406 L 216.644531 64.089844 "/>
<path style="fill:none;stroke-width:1.2;stroke-linecap:butt;stroke-linejoin:miter;stroke:rgb(0%,0%,0%);stroke-opacity:1;stroke-miterlimit:10;" d="M 244.246094 74.730469 L 221.230469 93.316406 "/>
<path style="fill:none;stroke-width:1.2;stroke-linecap:butt;stroke-linejoin:miter;stroke:rgb(0%,0%,0%);stroke-opacity:1;stroke-miterlimit:10;" d="M 216.644531 64.089844 L 244.246094 74.730469 "/>
</g>
</svg>

<svg xmlns="http://www.w3.org/2000/svg" xmlns:xlink="http://www.w3.org/1999/xlink" width="300pt" height="300pt" viewBox="0 0 300 300"><defs><symbol overflow="visible"><path d="M.594 2.125V-8.47h6V2.126zm.672-.672h4.671V-7.78h-4.67zm0 0"/></symbol><symbol overflow="visible" id="a"><path d="M4.734-7.953c-.867 0-1.554.324-2.062.97-.5.635-.75 1.51-.75 2.624 0 1.094.25 1.965.75 2.61.508.637 1.195.953 2.062.953.852 0 1.532-.316 2.032-.953.507-.645.765-1.516.765-2.61 0-1.113-.257-1.988-.764-2.624-.5-.645-1.18-.97-2.032-.97zm0-.953c1.22 0 2.192.414 2.922 1.234.74.824 1.11 1.93 1.11 3.313 0 1.376-.37 2.477-1.11 3.298C6.926-.24 5.953.17 4.734.17c-1.23 0-2.214-.41-2.953-1.234C1.04-1.882.673-2.984.673-4.36c0-1.382.367-2.488 1.11-3.312.738-.82 1.722-1.234 2.952-1.234zm0 0"/></symbol><symbol overflow="visible" id="b"><path d="M1.172-8.75h1.594l3.89 7.313V-8.75h1.14V0H6.204L2.328-7.313V0H1.172zm0 0"/></symbol><symbol overflow="visible" id="c"><path d="M1.172-8.75H2.36v3.594h4.296V-8.75h1.188V0H6.656v-4.172H2.36V0H1.17zm0 0"/></symbol><symbol overflow="visible"><path d="M.5 1.766v-8.813h5v8.813zm.563-.547h3.875v-7.704H1.063zm0 0"/></symbol><symbol overflow="visible" id="d"><path d="M1.922-.828H5.36V0H.733v-.828c.375-.383.883-.906 1.532-1.563.644-.657 1.05-1.08 1.218-1.266.313-.352.532-.65.657-.89.126-.25.188-.493.188-.735 0-.384-.137-.697-.406-.94-.274-.25-.625-.374-1.063-.374-.313 0-.64.06-.985.172-.336.106-.7.266-1.094.484v-1c.396-.156.767-.273 1.11-.36.344-.08.66-.124.954-.124.75 0 1.347.188 1.797.563.458.376.688.883.688 1.516 0 .305-.058.59-.172.86-.117.26-.32.574-.61.937-.085.094-.343.37-.78.828-.438.45-1.055 1.08-1.844 1.892zm0 0"/></symbol><symbol overflow="visible" id="e"><path d="M4.594-6.266v2.72h2.718v.827H4.595V0H3.78v-2.72H1.064v-.827H3.78v-2.72zm0 0"/></symbol></defs><g><path fill="#fff" d="M0 0h300v300H0z"/><path d="M264.75 183.984l-.754-14.77" stroke-width="1.2" stroke="#f00" stroke-miterlimit="10" fill="none"/><path d="M263.996 169.215l-.754-14.774M237.117 194.547l13.817-5.28" stroke-width="1.2" stroke="#000" stroke-miterlimit="10" fill="none"/><path d="M250.934 189.266l13.816-5.282" stroke-width="1.2" stroke="#f00" stroke-miterlimit="10" fill="none"/><path d="M259.75 176.984h10v14h-10zm0 0" fill="#fff"/><use xlink:href="#a" x="259.75" y="188.123" fill="#f00"/><path d="M263.242 154.44l-28.562-7.694M234.68 146.746l-16.145 24.785M218.535 171.53l-29.222 4.59M216.69 178.867l-23.377 3.668M237.117 194.547l-18.582-23.016M189.313 176.12l-10.64 27.603M178.672 203.723l18.582 23.01M185.945 201.648l14.868 18.415M178.672 203.723l-29.223 4.586M197.254 226.734l29.226-4.586M226.48 222.148l10.637-27.6M221.047 216.887l8.512-22.082M146.2 207.055l-5.317 13.8" stroke-width="1.2" stroke="#000" stroke-miterlimit="10" fill="none"/><path d="M140.883 220.855l-5.32 13.8" stroke-width="1.2" stroke="#f00" stroke-miterlimit="10" fill="none"/><path d="M152.695 209.56l-5.32 13.8" stroke-width="1.2" stroke="#000" stroke-miterlimit="10" fill="none"/><path d="M147.375 223.36l-5.32 13.8" stroke-width="1.2" stroke="#f00" stroke-miterlimit="10" fill="none"/><path d="M149.45 208.31l-9.294-11.51" stroke-width="1.2" stroke="#000" stroke-miterlimit="10" fill="none"/><path d="M140.156 196.8l-9.293-11.507" stroke-width="1.2" stroke="#00f" stroke-miterlimit="10" fill="none"/><path d="M128.81 228.91h10v14h-10zm0 0" fill="#fff"/><use xlink:href="#a" x="128.809" y="240.049" fill="#f00"/><path d="M130.863 185.293l-14.61 2.293" stroke-width="1.2" stroke="#00f" stroke-miterlimit="10" fill="none"/><path d="M116.254 187.586l-14.613 2.293" stroke-width="1.2" stroke="#000" stroke-miterlimit="10" fill="none"/><path d="M130.863 185.293l5.32-13.8" stroke-width="1.2" stroke="#00f" stroke-miterlimit="10" fill="none"/><path d="M136.184 171.492l5.32-13.8" stroke-width="1.2" stroke="#000" stroke-miterlimit="10" fill="none"/><path d="M126.863 178.293h9v14h-9zm0 0" fill="#fff"/><use xlink:href="#b" x="126.863" y="189.432" fill="#00f"/><path d="M101.64 189.88l-18.58-23.017M83.06 166.863l10.635-27.6M53.832 171.45l29.227-4.587M93.695 139.262l-18.582-23.016M75.113 116.246L60.5 118.54" stroke-width="1.2" stroke="#000" stroke-miterlimit="10" fill="none"/><path d="M60.5 118.54l-14.61 2.292M45.89 120.832l-5.32 13.8" stroke-width="1.2" stroke="#00f" stroke-miterlimit="10" fill="none"/><path d="M40.57 134.633l-5.32 13.8" stroke-width="1.2" stroke="#000" stroke-miterlimit="10" fill="none"/><path d="M29.89 109.832h33v22h-33zm0 0" fill="#fff"/><g fill="#00f"><use xlink:href="#b" x="29.891" y="123.997"/><use xlink:href="#c" x="38.867" y="123.997"/></g><use xlink:href="#d" x="47.891" y="128.88" fill="#00f"/><use xlink:href="#e" x="54.253" y="119.114" fill="#00f"/><path d="M35.25 148.434l18.582 23.015M141.504 157.69l14.613-2.292" stroke-width="1.2" stroke="#000" stroke-miterlimit="10" fill="none"/><path d="M156.117 155.398l14.61-2.293" stroke-width="1.2" stroke="#00f" stroke-miterlimit="10" fill="none"/><path d="M143.348 150.355l11.687-1.835" stroke-width="1.2" stroke="#000" stroke-miterlimit="10" fill="none"/><path d="M155.035 148.52l11.692-1.833" stroke-width="1.2" stroke="#00f" stroke-miterlimit="10" fill="none"/><path d="M122.922 134.676l18.582 23.015" stroke-width="1.2" stroke="#000" stroke-miterlimit="10" fill="none"/><path d="M170.727 153.105l5.32-13.8" stroke-width="1.2" stroke="#00f" stroke-miterlimit="10" fill="none"/><path d="M176.047 139.305l5.32-13.8" stroke-width="1.2" stroke="#000" stroke-miterlimit="10" fill="none"/><path d="M166.727 146.105h9v14h-9zm0 0" fill="#fff"/><use xlink:href="#b" x="166.727" y="157.244" fill="#00f"/><path d="M181.367 125.504l-9.293-11.508" stroke-width="1.2" stroke="#000" stroke-miterlimit="10" fill="none"/><path d="M172.074 113.996l-9.29-11.508" stroke-width="1.2" stroke="#00f" stroke-miterlimit="10" fill="none"/><path d="M174.094 127.574l-7.434-9.207" stroke-width="1.2" stroke="#000" stroke-miterlimit="10" fill="none"/><path d="M166.66 118.367l-7.433-9.207" stroke-width="1.2" stroke="#00f" stroke-miterlimit="10" fill="none"/><path d="M181.367 125.504l14.613-2.293" stroke-width="1.2" stroke="#000" stroke-miterlimit="10" fill="none"/><path d="M195.98 123.21l14.61-2.292M162.785 102.488l-14.613 2.293" stroke-width="1.2" stroke="#00f" stroke-miterlimit="10" fill="none"/><path d="M148.172 104.78l-14.613 2.294" stroke-width="1.2" stroke="#000" stroke-miterlimit="10" fill="none"/><path d="M158.785 95.488h9v14h-9zm0 0" fill="#fff"/><use xlink:href="#b" x="158.785" y="106.627" fill="#00f"/><path d="M133.56 107.074l-10.638 27.602M138.992 112.336l-8.512 22.082" stroke-width="1.2" stroke="#000" stroke-miterlimit="10" fill="none"/><path d="M210.59 120.918l5.32-13.8" stroke-width="1.2" stroke="#00f" stroke-miterlimit="10" fill="none"/><path d="M215.91 107.117l5.32-13.8" stroke-width="1.2" stroke="#000" stroke-miterlimit="10" fill="none"/><path d="M201.59 113.918h18v14h-18zm0 0" fill="#fff"/><g fill="#00f"><use xlink:href="#b" x="201.59" y="125.057"/><use xlink:href="#c" x="210.566" y="125.057"/></g><path d="M221.23 93.316l-4.585-29.226M244.246 74.73L221.23 93.316M216.645 64.09l27.6 10.64" stroke-width="1.2" stroke="#000" stroke-miterlimit="10" fill="none"/></g></svg>
